modules/feathericon/icons/codepen.svg

<?xml version="1.0" encoding="UTF-8"?>
<svg width="24px" height="24px" viewBox="0 0 24 24" version="1.1" xmlns="http://www.w3.org/2000/svg" xmlns:xlink="http://www.w3.org/1999/xlink">
    <!-- Generator: sketchtool 52.2 (67145) - http://www.bohemiancoding.com/sketch -->
    <title>codepen</title>
    <desc>Created with sketchtool.</desc>
    <g id="brand" stroke="none" stroke-width="1" fill="none" fill-rule="evenodd">
        <g id="codepen" fill="#050101">
            <path d="M22,15.0469028 C22,15.0847805 21.9973335,15.1221113 21.9923424,15.1594421 C21.9904964,15.1715438 21.9875564,15.1841925 21.9855053,15.1962943 C21.9810611,15.2204977 21.9768221,15.2447012 21.9704636,15.2683577 C21.9668399,15.282579 21.9615753,15.2961849 21.9570628,15.3099275 C21.9502256,15.3309175 21.9434569,15.3520443 21.9350472,15.3731027 C21.9292356,15.3872556 21.9220566,15.4009299 21.9158348,15.4146041 C21.9066047,15.43409 21.8971011,15.4529605 21.8866402,15.4719677 C21.8789143,15.485095 21.8702995,15.4982907 21.8620949,15.511418 C21.8505401,15.5293313 21.8387803,15.5466977 21.8258581,15.563517 C21.8163544,15.5766443 21.8066457,15.5887461 21.7961849,15.6008478 C21.7827157,15.6165732 21.7684945,15.632367 21.7535211,15.6470669 C21.7421715,15.65869 21.7310953,15.6702448 21.7193354,15.680774 C21.7038151,15.6949952 21.6872692,15.7086695 21.6704499,15.7217968 C21.6577328,15.7318474 21.6451525,15.7418296 21.6316833,15.7512649 C21.6267606,15.7544783 21.6223164,15.758649 21.6172569,15.7617941 L12.4768905,21.8555996 C12.3324901,21.9518665 12.1664843,22.0002051 12,22.0002051 C11.8340626,22.0002051 11.6677834,21.9518665 11.523383,21.8555996 L2.38274306,15.7617941 C2.37795706,15.758649 2.37351292,15.7544783 2.3687953,15.7512649 C2.35532613,15.7418296 2.34247231,15.7318474 2.3298236,15.7217968 C2.31300424,15.7086695 2.29666348,15.6949952 2.28114317,15.680774 C2.26931492,15.6702448 2.25803364,15.65869 2.24668399,15.6470669 C2.23171065,15.632367 2.21783126,15.6165732 2.20381512,15.6008478 C2.1938329,15.5887461 2.18385068,15.5766443 2.17441542,15.563517 C2.16176672,15.5466977 2.14966498,15.5293313 2.13831533,15.511418 C2.12963216,15.4982907 2.12149597,15.485095 2.11363326,15.4719677 C2.10310406,15.4529605 2.09366881,15.43409 2.08443867,15.4146041 C2.07787502,15.4009299 2.07124299,15.3872556 2.06522631,15.3731027 C2.05681663,15.3520443 2.049706,15.3309175 2.04314235,15.3099275 C2.03842472,15.2961849 2.0337071,15.282579 2.02974156,15.2683577 C2.02338302,15.2447012 2.01921236,15.2204977 2.01469985,15.1962943 C2.01264871,15.1841925 2.00950362,15.1715438 2.00786271,15.1594421 C2.0028716,15.1221113 2,15.0847805 2,15.0469028 L2,8.95309722 C2,8.91521947 2.0028716,8.87788869 2.00786271,8.84103651 C2.00950362,8.82845617 2.01264871,8.81635444 2.01469985,8.80370573 C2.01921236,8.77950226 2.02338302,8.75529878 2.02974156,8.73164228 C2.0337071,8.71742103 2.03842472,8.70374675 2.04314235,8.69007247 C2.049706,8.66901408 2.05681663,8.64802407 2.06522631,8.62744428 C2.07124299,8.6132914 2.07787502,8.59907015 2.08443867,8.58539587 C2.09366881,8.56591002 2.10310406,8.54697115 2.11363326,8.52857924 C2.12149597,8.51490496 2.12963216,8.50177766 2.13831533,8.48858198 C2.14966498,8.47073704 2.16176672,8.45337071 2.17441542,8.43648298 C2.18385068,8.42390264 2.1938329,8.41125393 2.20381512,8.39922057 C2.21783126,8.38342677 2.23171065,8.36763298 2.24668399,8.35286476 C2.25803364,8.34131 2.26931492,8.32975523 2.28114317,8.31922604 C2.29666348,8.30500479 2.31300424,8.29133051 2.3298236,8.27813483 C2.34247231,8.2681526 2.35532613,8.25817038 2.3687953,8.24873513 C2.37351292,8.24552167 2.37795706,8.24135102 2.38274306,8.23820593 L11.523383,2.14440038 C11.8121838,1.95186654 12.1880213,1.95186654 12.4768905,2.14440038 L21.6172569,8.23820593 C21.6223164,8.24135102 21.6267606,8.24552167 21.6316833,8.24873513 C21.6451525,8.25817038 21.6577328,8.2681526 21.6704499,8.27813483 C21.6872692,8.29133051 21.7038151,8.30500479 21.7193354,8.31922604 C21.7310953,8.32975523 21.7421715,8.34131 21.7535211,8.35286476 C21.7684945,8.36763298 21.7827157,8.38342677 21.7961849,8.39922057 C21.8066457,8.41125393 21.8163544,8.42390264 21.8258581,8.43648298 C21.8387803,8.45337071 21.8505401,8.47073704 21.8620949,8.48858198 C21.8702995,8.50177766 21.8789143,8.51490496 21.8866402,8.52857924 C21.8971011,8.54697115 21.9066047,8.56591002 21.9158348,8.58539587 C21.9220566,8.59907015 21.9292356,8.6132914 21.9350472,8.62744428 C21.9434569,8.64802407 21.9502256,8.66901408 21.9570628,8.69007247 C21.9615753,8.70374675 21.9668399,8.71742103 21.9704636,8.73164228 C21.9768221,8.75529878 21.9810611,8.77950226 21.9855053,8.80370573 C21.9875564,8.81635444 21.9904964,8.82845617 21.9923424,8.84103651 C21.9973335,8.87788869 22,8.91521947 22,8.95309722 L22,15.0469028 Z M3.71886367,10.5617667 L3.71886367,13.4382196 L5.86914399,12.0000273 L3.71886367,10.5617667 Z M11.1406605,8.47386845 L11.1406605,4.4653904 L4.40696704,8.95417749 L7.41489813,10.9663476 L11.1406605,8.47386845 Z M19.5933133,8.95417065 L12.8595515,4.46538356 L12.8595515,8.47386162 L16.5855873,10.9663408 L19.5933133,8.95417065 Z M4.40694653,15.0458362 L11.14064,19.5346233 L11.14064,15.5260768 L7.41494599,13.034213 L4.40694653,15.0458362 Z M12.859531,15.5261042 L12.859531,19.5346506 L19.5932928,15.0458635 L16.5855668,13.0342404 L12.859531,15.5261042 Z M12.0000137,9.96681936 L8.96042664,11.9999795 L12.0000137,14.033208 L15.0398058,11.9999795 L12.0000137,9.96681936 Z M20.281362,13.4382401 L20.281362,10.5617872 L18.1314235,11.9999795 L20.281362,13.4382401 Z" id="Shape"></path>
        </g>
    </g>
</svg>

<svg width="24" height="24" viewBox="0 0 24 24" xmlns="http://www.w3.org/2000/svg"><path d="M22 15.047a.846.846 0 0 1-.008.112l-.006.037-.016.072c-.003.015-.008.028-.013.042l-.022.063-.02.042c-.008.02-.018.038-.028.057l-.025.04a.769.769 0 0 1-.108.135l-.035.034a.812.812 0 0 1-.049.04l-.038.03c-.005.003-.01.008-.015.01l-9.14 6.095a.858.858 0 0 1-.954 0l-9.14-6.094-.014-.01a.807.807 0 0 1-.088-.071c-.012-.01-.023-.022-.034-.034-.015-.015-.03-.03-.043-.046a.707.707 0 0 1-.066-.09 1.038 1.038 0 0 1-.054-.096l-.019-.042a.868.868 0 0 1-.022-.063c-.005-.014-.01-.027-.013-.042-.007-.023-.01-.048-.015-.072l-.007-.037A.847.847 0 0 1 2 15.047V8.953c0-.038.003-.075.008-.112l.007-.037c.004-.024.008-.049.015-.072a.774.774 0 0 1 .145-.295.978.978 0 0 1 .029-.038l.043-.046.034-.034a.834.834 0 0 1 .088-.07c.005-.003.009-.008.014-.01l9.14-6.095a.86.86 0 0 1 .954 0l9.14 6.094c.005.003.01.008.015.01l.038.03a.839.839 0 0 1 .05.041l.034.034a.735.735 0 0 1 .108.136l.025.04.029.056.019.042.022.063c.005.014.01.027.013.042.007.023.011.048.016.072l.006.037a.834.834 0 0 1 .008.112v6.094zM3.719 10.562v2.876L5.869 12l-2.15-1.438zm7.422-2.088V4.465l-6.734 4.49 3.008 2.011 3.726-2.492zm8.452.48L12.86 4.465v4.009l3.726 2.492 3.007-2.012zM4.407 15.046l6.734 4.489v-4.009l-3.726-2.492-3.008 2.012zm8.453.48v4.009l6.733-4.49-3.007-2.01-3.726 2.491zM12 9.966L8.96 12 12 14.033 15.04 12 12 9.967zm8.281 3.472v-2.876L18.131 12l2.15 1.438z" fill="#050101" fill-rule="evenodd"/></svg>
